PortableApps/LibreOfficePortable/App/libreoffice/help/media/icon-themes/cmd/lc_closepreview.svg

<svg viewBox="0 0 24 24" xmlns="http://www.w3.org/2000/svg"><path d="m12 3a9 9 0 0 0 -9 9 9 9 0 0 0 9 9 9 9 0 0 0 9-9 9 9 0 0 0 -9-9z" fill="#e68497"/><path d="m7.8339844 7a.83486508.83489353 0 0 0 -.5820313 1.4335938l3.5664059 3.5664062-3.5742184 3.574219a.83497997.83500593 0 1 0 1.1816406 1.18164l3.5742188-3.574218 3.574219 3.574218a.83502587.83505428 0 1 0 1.18164-1.18164l-3.574218-3.574219 3.564453-3.5664062a.8348194.83484536 0 0 0 -.607422-1.4335938.8348194.83484536 0 0 0 -.572266.2519531l-3.566406 3.5664059-3.5664062-3.5664059a.83486508.83489353 0 0 0 -.5996094-.2519531z" fill="#fff"/></svg>

<svg viewBox="0 0 24 24" xmlns="http://www.w3.org/2000/svg">
  <path
     style="fill:#e68497"
     d="M 12 3 A 9 9 0 0 0 3 12 A 9 9 0 0 0 12 21 A 9 9 0 0 0 21 12 A 9 9 0 0 0 12 3 z "
     />
  <path
     style="fill:#ffffff"
     d="M 7.8339844 7 A 0.83486508 0.83489353 0 0 0 7.2519531 8.4335938 L 10.818359 12 L 7.2441406 15.574219 A 0.83497997 0.83500593 0 1 0 8.4257812 16.755859 L 12 13.181641 L 15.574219 16.755859 A 0.83502587 0.83505428 0 1 0 16.755859 15.574219 L 13.181641 12 L 16.746094 8.4335938 A 0.8348194 0.83484536 0 0 0 16.138672 7 A 0.8348194 0.83484536 0 0 0 15.566406 7.2519531 L 12 10.818359 L 8.4335938 7.2519531 A 0.83486508 0.83489353 0 0 0 7.8339844 7 z "
     />
</svg>
